X: 0
T: Sunday's Well
C: Caitlín Nic Gabhann
M: 3/4
L: 1/8
K: Amaj
"D"AF|:"A"E2 A3B|c3B BA|"E"e4(3cBA|"D"efa2af|"A"e3f fe|c3B BA|"E"B3c BA|"D"F2A2AF|
"A"E2 A3B|c3B BA|"E"e4(3cBA|"D"efa2af|"A"e2A3B|"E"c3B BA|"A"A6-|1 A3 B AF:|2 A3E (3Ace||
|:"A"a3 b ba|efa2af|"E"e3f fe|"F#m"c3B (3Ace|"A"a3 b ba|"D"f2a3b|"F#m"c'6-|c'3b ba|
"A"a4ba|efa2af|"E"e3f fe|"F#m"c3e cB|"A"A2e2ef|"E"e2c2BA|"A"A6-|1 A3E (3Ace:|2 A4|]